X:1
T:Levantine's Barrel -- Reel
R:reel
B:Ryan's Mammoth Collection
N:158
Z:Contributed by Ray Davies,  ray:davies99.freeserve.co.uk
M:2/4
L:1/16
K:D
vfe|\
(df)(Ad) .f2(fe) | .d2(ba) (^ga)(ed) | (ce)(Ac) .e(Ace) | dfba ^ga=ge |
dfAd .f2(fe) | .d2(ba) (^ga)(ed) | (ce)(Ac e).A.c.e | d2f2d2::
"8va. ad lib.~~~~~~~~~~~~~~~~~~~~~~~~"kuA2|\
kB2kc2 kd2(cB) | BA^GA .F2(ed) | (ce)(Ac) (eA)(ce) | dfba ^gafd |
kB2kc2 kd2(cB) | BA^GA .F2(ed) | ceAc eAce | d2f2d2:|
